X:648
T:Uncle's Jig
S:As played by Bob Cann
Z:Nigel Gatherer
L:1/8
M:6/8
K:G
B | ddd dcB | ddd d2d | g2g f2e |  d3- dcB |
    c2e e2c | B2d G2B | A2B cBA |1 GAG F2 :|
                                 2 G3- G2 ||
K:D
A | FAd c2e | d2f a2f | e2f gfe |  d2f A3  |
    A2d c2e | d2f a2f | e2f gfe |  d3- d2 :|
K:G
B | ddd dcB | ddd d2d | g2g f2e |  d3- dcB |
    c2e e2c | B2d G2B | A2B cBA |1 GAG F2 :|
                                 2 G3- G2 ||
